X: 53
T:Never Grow Old (#249)
M:4/4
L:1/8
S:Capt. F. O'Neill
R:Reel
K:D
A|FDAF d2 "tr"dA|d2 "tr"df eEEA|1FDAF d2 dB|cdeg fdd:|
2FDAF dABG|FAdg fdd||g|"tr"fede fgaf|gfed cAeg|
"tr"fede fgaf|ecdB Addg|fdfg fgaf|
"tr"gfed cAeg|fdgb afge|fdec d2 d||

